img/svg/logos/11.svg

<svg width="107" height="29" viewBox="0 0 107 29" fill="none" xmlns="http://www.w3.org/2000/svg">
<path d="M22.5934 8.31901L14.1473 27.7664H9.38818L0.944336 8.31901H5.73837L11.8611 22.7406L18.1684 8.31901H22.5934ZM24.7694 27.7664H29.38V8.31901H24.7694V27.7664ZM47.5121 22.4499C48.618 21.333 49.1716 19.8641 49.1716 18.0422C49.1716 16.2225 48.618 14.7536 47.5121 13.6366C46.405 12.5196 45.0031 11.9606 43.3065 11.9606C41.6098 11.9606 40.2147 12.5196 39.1211 13.6366C38.0264 14.7536 37.4785 16.2225 37.4785 18.0422C37.4785 19.8641 38.0264 21.333 39.1211 22.4499C40.2147 23.5669 41.6098 24.1248 43.3065 24.1248C45.0042 24.1248 46.405 23.568 47.5121 22.4499ZM53.708 8.31901V27.7664H49.3201V25.2541C48.5694 26.1689 47.5988 26.8826 46.4972 27.3299C45.3789 27.7909 44.1424 28.0226 42.7912 28.0226C40.8729 28.0226 39.1571 27.6083 37.645 26.7831C36.1514 25.9763 34.9227 24.7628 34.1043 23.2863C33.256 21.7818 32.8318 20.0345 32.8318 18.0422C32.8318 16.0521 33.256 14.3093 34.1043 12.817C34.9274 11.3488 36.1554 10.1426 37.645 9.3391C39.1571 8.51389 40.874 8.10073 42.7912 8.10073C44.0693 8.10073 45.2439 8.31901 46.3127 8.75555C47.3816 9.19321 48.3098 9.83578 49.0984 10.6866V8.31901H53.708ZM69.7125 26.7107C69.1713 27.1473 68.5131 27.4747 67.739 27.6941C66.9409 27.9159 66.1154 28.0265 65.2863 28.0226C63.1216 28.0226 61.4498 27.4635 60.2695 26.3466C59.0893 25.2307 58.4998 23.6026 58.4998 21.4666V4.02148H63.1093V8.46489H68.3837V12.1065H63.1093V21.3575C63.1093 22.3041 63.35 23.0268 63.8293 23.5235C64.3086 24.0213 64.9781 24.2696 65.8399 24.2696C66.8716 24.2696 67.7323 24.0035 68.4208 23.47L69.7125 26.7107ZM84.953 22.4499C86.059 21.333 86.6125 19.8641 86.6125 18.0422C86.6125 16.2225 86.059 14.7536 84.953 13.6366C83.8459 12.5196 82.444 11.9606 80.7474 11.9606C79.0508 11.9606 77.6556 12.5196 76.562 13.6366C75.4673 14.7536 74.9194 16.2225 74.9194 18.0422C74.9194 19.8641 75.4673 21.333 76.562 22.4499C77.6556 23.5669 79.0508 24.1248 80.7474 24.1248C82.4452 24.1248 83.8459 23.568 84.953 22.4499ZM75.3627 26.7475C73.7651 25.8978 72.5162 24.714 71.6184 23.195C70.7206 21.6782 70.2728 19.9621 70.2728 18.0422C70.2728 16.1245 70.7206 14.4139 71.6184 12.9083C72.5162 11.4038 73.7639 10.2244 75.3627 9.37585C76.9603 8.52503 78.756 8.10073 80.7474 8.10073C82.7636 8.10073 84.5716 8.52503 86.1704 9.37585C87.768 10.2256 89.0169 11.4027 89.9136 12.9072C90.8114 14.4139 91.2603 16.1256 91.2603 18.0422C91.2603 19.9621 90.8103 21.6782 89.9136 23.1961C89.0157 24.714 87.768 25.8978 86.1692 26.7475C84.5716 27.5972 82.7636 28.0226 80.7474 28.0226C78.756 28.0226 76.9603 27.5972 75.3627 26.7475ZM106.161 8.10073V12.4339C105.809 12.3656 105.45 12.3294 105.091 12.3259C103.295 12.3259 101.895 12.8415 100.887 13.8738C99.8774 14.9062 99.3734 16.3929 99.3734 18.3339V27.7664H94.7638V8.31901H99.1517V11.1588C100.48 9.12083 102.816 8.10073 106.161 8.10073Z" fill="#717171"/>
<path d="M29.3813 3.24981C29.381 2.90858 29.3128 2.57075 29.1805 2.25563C29.0482 1.94052 28.8545 1.65429 28.6104 1.41331C28.3664 1.17234 28.0767 0.981335 27.758 0.851225C27.4393 0.721115 27.0978 0.654448 26.7531 0.655033C26.4084 0.654594 26.0671 0.72137 25.7485 0.851545C25.4299 0.981721 25.1404 1.17275 24.8964 1.41371C24.6525 1.65467 24.4589 1.94085 24.3267 2.25589C24.1945 2.57093 24.1263 2.90867 24.126 3.24981C24.1263 3.59089 24.1945 3.92857 24.3267 4.24355C24.4589 4.55854 24.6525 4.84464 24.8965 5.08551C25.1405 5.32638 25.43 5.5173 25.7486 5.64736C26.0672 5.77741 26.4085 5.84405 26.7531 5.84346H29.3802V3.24869L29.3813 3.24981Z" fill="#A1A1A1"/>
</svg>

<svg width="107" height="29" viewBox="0 0 107 29" fill="none" xmlns="http://www.w3.org/2000/svg"><path d="M22.593 8.319l-8.446 19.447H9.388L.944 8.32h4.794l6.123 14.422L18.168 8.32h4.425zm2.176 19.447h4.611V8.32h-4.61v19.447zm22.743-5.316c1.106-1.117 1.66-2.586 1.66-4.408 0-1.82-.554-3.288-1.66-4.405-1.107-1.117-2.509-1.676-4.206-1.676-1.696 0-3.091.559-4.185 1.676-1.095 1.117-1.643 2.585-1.643 4.405 0 1.822.548 3.291 1.643 4.408 1.094 1.117 2.489 1.675 4.185 1.675 1.698 0 3.099-.557 4.206-1.675zm6.196-14.131v19.447H49.32v-2.512a7.111 7.111 0 01-2.823 2.076c-1.118.46-2.355.693-3.706.693-1.918 0-3.634-.415-5.146-1.24a8.859 8.859 0 01-3.54-3.497c-.849-1.504-1.273-3.252-1.273-5.244 0-1.99.424-3.733 1.272-5.225a8.9 8.9 0 013.541-3.478c1.512-.825 3.229-1.238 5.146-1.238 1.278 0 2.453.218 3.522.655a7.765 7.765 0 012.785 1.93V8.32h4.61zm16.005 18.392c-.542.436-1.2.764-1.974.983a9.003 9.003 0 01-2.453.329c-2.164 0-3.836-.56-5.017-1.676-1.18-1.116-1.77-2.744-1.77-4.88V4.02h4.61v4.444h5.275v3.642h-5.275v9.25c0 .947.241 1.67.72 2.166.48.498 1.15.747 2.01.747 1.033 0 1.893-.267 2.582-.8l1.291 3.24zm15.24-4.261c1.106-1.117 1.66-2.586 1.66-4.408 0-1.82-.554-3.288-1.66-4.405-1.107-1.117-2.509-1.676-4.206-1.676-1.696 0-3.091.559-4.185 1.676-1.095 1.117-1.643 2.585-1.643 4.405 0 1.822.548 3.291 1.643 4.408 1.094 1.117 2.489 1.675 4.185 1.675 1.698 0 3.099-.557 4.206-1.675zm-9.59 4.297c-1.598-.85-2.847-2.033-3.745-3.552-.897-1.517-1.345-3.233-1.345-5.153 0-1.918.448-3.628 1.345-5.134.898-1.504 2.146-2.684 3.745-3.532C76.96 8.525 78.756 8.1 80.747 8.1c2.017 0 3.825.424 5.423 1.275 1.598.85 2.847 2.027 3.744 3.531.897 1.507 1.346 3.219 1.346 5.135 0 1.92-.45 3.636-1.346 5.154-.898 1.518-2.146 2.702-3.745 3.551-1.597.85-3.405 1.276-5.422 1.276-1.991 0-3.787-.426-5.384-1.276zM106.16 8.101v4.333a5.927 5.927 0 00-1.07-.108c-1.796 0-3.196.515-4.204 1.548-1.01 1.032-1.514 2.519-1.514 4.46v9.432h-4.61V8.32h4.389v2.84c1.329-2.04 3.665-3.06 7.009-3.06z" fill="#717171"/><path d="M29.381 3.25a2.574 2.574 0 00-.77-1.837 2.625 2.625 0 00-1.858-.758 2.647 2.647 0 00-1.857.759 2.596 2.596 0 00-.77 1.836 2.573 2.573 0 00.77 1.836 2.625 2.625 0 001.857.757h2.627V3.25h.001z" fill="#A1A1A1"/></svg>
